svgs/thin/bars-progress.svg

<svg xmlns="http://www.w3.org/2000/svg" viewBox="0 0 512 512"><!--! Font Awesome Pro 6.6.0 by @fontawesome - https://fontawesome.com License - https://fontawesome.com/license (Commercial License) Copyright 2024 Fonticons, Inc. --><path d="M464 80c17.7 0 32 14.3 32 32l0 64c0 17.7-14.3 32-32 32l-144 0 0-128 144 0zM48 80l256 0 0 128L48 208c-17.7 0-32-14.3-32-32l0-64c0-17.7 14.3-32 32-32zm0-16C21.5 64 0 85.5 0 112l0 64c0 26.5 21.5 48 48 48l416 0c26.5 0 48-21.5 48-48l0-64c0-26.5-21.5-48-48-48L48 64zM464 304c17.7 0 32 14.3 32 32l0 64c0 17.7-14.3 32-32 32l-272 0 0-128 272 0zM48 304l128 0 0 128L48 432c-17.7 0-32-14.3-32-32l0-64c0-17.7 14.3-32 32-32zm0-16c-26.5 0-48 21.5-48 48l0 64c0 26.5 21.5 48 48 48l416 0c26.5 0 48-21.5 48-48l0-64c0-26.5-21.5-48-48-48L48 288z"/></svg>

<svg xmlns="http://www.w3.org/2000/svg" viewBox="0 0 512 512"><!--! Font Awesome Pro 6.5.2 by @fontawesome - https://fontawesome.com License - https://fontawesome.com/license (Commercial License) Copyright 2024 Fonticons, Inc. --><path d="M464 80c17.7 0 32 14.3 32 32v64c0 17.7-14.3 32-32 32H320V80H464zM48 80H304V208H48c-17.7 0-32-14.3-32-32V112c0-17.7 14.3-32 32-32zm0-16C21.5 64 0 85.5 0 112v64c0 26.5 21.5 48 48 48H464c26.5 0 48-21.5 48-48V112c0-26.5-21.5-48-48-48H48zM464 304c17.7 0 32 14.3 32 32v64c0 17.7-14.3 32-32 32H192V304H464zM48 304H176V432H48c-17.7 0-32-14.3-32-32V336c0-17.7 14.3-32 32-32zm0-16c-26.5 0-48 21.5-48 48v64c0 26.5 21.5 48 48 48H464c26.5 0 48-21.5 48-48V336c0-26.5-21.5-48-48-48H48z"/></svg>
